Icons/com_avast_android_mobilesecurity.svg

<svg viewBox="0 0 48 48" xmlns:xlink="http://www.w3.org/1999/xlink">
 <defs>
  <linearGradient id="0">
   <stop stop-opacity="0"/>
   <stop offset="1"/>
  </linearGradient>
  <linearGradient xlink:href="#0" id="1" gradientUnits="userSpaceOnUse" gradientTransform="translate(4e-7,-48)" y1="47" x2="0" y2="1"/>
  <clipPath id="2">
   <g transform="translate(0,-1004.3622)">
    <rect rx="4" y="1005.36" x="1" height="46" width="46" fill="#1890d0"/>
   </g>
  </clipPath>
  <clipPath id="3">
   <g transform="translate(0,-1004.3622)">
    <rect rx="4" y="1005.36" x="1" height="46" width="46" fill="#1890d0"/>
   </g>
  </clipPath>
 </defs>
 <g>
  <g transform="translate(0,-1004.3622)">
   <path d="m 5,1006.3622 c -2.216,0 -4,1.784 -4,4 l 0,37.25 c 0,2.216 1.784,4 4,4 l 38,0 c 2.216,0 4,-1.784 4,-4 l 0,-37.25 c 0,-2.216 -1.784,-4 -4,-4 l -38,0 z m -4,41.5 0,0.5 c 0,2.216 1.784,4 4,4 l 38,0 c 2.216,0 4,-1.784 4,-4 l 0,-0.5 c 0,2.216 -1.784,4 -4,4 l -38,0 c -2.216,0 -4,-1.784 -4,-4 z" opacity="0.02"/>
   <path d="m 1,1047.6122 0,0.25 c 0,2.216 1.784,4 4,4 l 38,0 c 2.216,0 4,-1.784 4,-4 l 0,-0.25 c 0,2.216 -1.784,4 -4,4 l -38,0 c -2.216,0 -4,-1.784 -4,-4 z" opacity="0.05"/>
   <rect width="46" height="46" x="1" y="1005.61" rx="4" opacity="0.1"/>
  </g>
 </g>
 <g>
  <g transform="translate(0,-1004.3622)">
   <rect rx="4" y="1005.36" x="1" height="46" width="46" fill="#ffb61d"/>
  </g>
 </g>
 <g>
  <rect transform="scale(1,-1)" width="46" height="46" x="1" y="-46.998" rx="4" opacity="0.1" fill="url(#1)"/>
 </g>
 <g>
  <g clip-path="url(#2)">
   <g opacity="0.1">
    <g>
     <path d="M 31.289062 12.007812 C 30.875 11.976562 30.445312 12.03125 30.023438 12.171875 C 29.519531 12.339844 29.171875 12.558594 28.78125 12.945312 C 28.277344 13.449219 28.011719 13.984375 27.890625 14.703125 C 27.824219 15.101562 27.773438 15.25 27.65625 15.5 C 27.207031 16.453125 26.222656 17.117188 25.242188 17.117188 C 25.160156 17.117188 24.902344 17.101562 24.65625 17.070312 C 23.671875 16.941406 23.222656 16.925781 22.195312 17.023438 C 21.917969 17.050781 21.582031 17.070312 21.46875 17.070312 C 20.980469 17.070312 20.683594 16.886719 20.484375 16.484375 C 20.359375 16.234375 20.316406 16.109375 20.320312 15.664062 C 20.324219 15.292969 20.332031 15.25 20.273438 15.078125 C 20.175781 14.804688 20.085938 14.679688 19.875 14.46875 C 19.566406 14.164062 19.242188 14.023438 18.820312 14.023438 C 18.542969 14.023438 18.347656 14.066406 18.117188 14.1875 C 17.628906 14.441406 17.324219 14.914062 17.296875 15.453125 C 17.277344 15.828125 17.351562 16.054688 17.554688 16.367188 C 17.703125 16.59375 17.882812 16.757812 18.210938 16.929688 C 18.566406 17.113281 18.753906 17.289062 18.914062 17.609375 C 19.015625 17.8125 19.007812 17.832031 19.007812 18.054688 C 19.007812 18.265625 19.007812 18.289062 18.9375 18.429688 C 18.894531 18.515625 18.773438 18.675781 18.679688 18.78125 C 17.800781 19.757812 17.265625 20.8125 17.039062 21.945312 C 16.929688 22.480469 16.898438 22.769531 16.921875 23.351562 C 16.933594 23.628906 16.945312 23.9375 16.945312 24.03125 C 16.9375 24.5625 16.558594 24.925781 15.75 25.203125 C 15.554688 25.269531 15.464844 25.285156 15.210938 25.296875 C 15.011719 25.304688 14.855469 25.296875 14.742188 25.273438 C 14.640625 25.253906 14.433594 25.25 14.226562 25.25 C 13.832031 25.25 13.644531 25.292969 13.335938 25.4375 C 12.1875 25.96875 11.679688 27.304688 12.210938 28.4375 C 12.890625 29.882812 14.8125 30.195312 15.914062 29.046875 C 16.078125 28.875 16.160156 28.746094 16.335938 28.4375 C 16.390625 28.335938 16.507812 28.199219 16.59375 28.109375 C 16.984375 27.699219 17.519531 27.5 18.140625 27.5 C 18.585938 27.5 18.847656 27.59375 19.195312 27.875 C 19.773438 28.339844 20.574219 28.746094 21.28125 28.953125 C 22.0625 29.179688 22.503906 29.214844 23.8125 29.1875 C 24.195312 29.175781 24.316406 29.199219 24.492188 29.230469 C 24.984375 29.328125 25.460938 29.519531 25.875 29.792969 C 26.179688 29.996094 26.679688 30.496094 26.882812 30.800781 C 27.15625 31.210938 27.355469 31.726562 27.421875 32.136719 C 27.53125 32.824219 27.664062 33.234375 27.890625 33.683594 C 28.507812 34.898438 29.617188 35.710938 30.984375 35.957031 C 31.359375 36.023438 32.175781 36.011719 32.554688 35.933594 C 33.855469 35.667969 34.9375 34.847656 35.53125 33.683594 C 35.851562 33.050781 36 32.472656 36 31.738281 C 36.003906 30.023438 35.003906 28.503906 33.421875 27.824219 C 33.058594 27.671875 32.792969 27.605469 32.296875 27.519531 C 31.804688 27.4375 31.476562 27.328125 31.125 27.144531 C 30.300781 26.71875 29.636719 25.929688 29.34375 25.0625 C 29.183594 24.578125 29.117188 24.105469 29.15625 23.539062 C 29.179688 23.179688 29.167969 21.976562 29.132812 21.148438 C 29.109375 20.613281 29.1875 20.289062 29.414062 19.835938 C 29.671875 19.316406 30.101562 18.886719 30.632812 18.617188 C 30.910156 18.476562 31.109375 18.425781 31.5 18.359375 C 31.914062 18.289062 32.210938 18.195312 32.53125 18.03125 C 33.273438 17.648438 33.835938 17 34.101562 16.203125 C 34.214844 15.863281 34.242188 15.585938 34.242188 15.195312 C 34.242188 14.804688 34.191406 14.53125 34.078125 14.1875 C 33.65625 12.929688 32.535156 12.101562 31.289062 12.007812 Z M 22.664062 18.898438 C 24.113281 18.800781 25.566406 19.492188 26.390625 20.726562 C 26.6875 21.171875 26.925781 21.765625 27.023438 22.296875 C 27.09375 22.664062 27.074219 23.496094 27 23.84375 C 26.785156 24.84375 26.257812 25.691406 25.476562 26.300781 C 24.828125 26.808594 24.101562 27.078125 23.25 27.144531 C 23.078125 27.160156 22.902344 27.171875 22.875 27.167969 C 22.566406 27.148438 22.332031 27.117188 22.125 27.074219 C 20.410156 26.726562 19.148438 25.378906 18.867188 23.632812 C 18.828125 23.382812 18.828125 22.644531 18.867188 22.414062 C 19.03125 21.472656 19.375 20.777344 20.015625 20.140625 C 20.386719 19.769531 20.691406 19.554688 21.117188 19.34375 C 21.472656 19.167969 21.691406 19.074219 22.054688 18.992188 C 22.261719 18.945312 22.457031 18.910156 22.664062 18.898438 Z M 23.109375 20.46875 C 21.894531 20.394531 20.785156 21.171875 20.460938 22.390625 C 20.402344 22.605469 20.390625 22.65625 20.390625 23.023438 C 20.390625 23.386719 20.402344 23.460938 20.460938 23.679688 C 20.59375 24.175781 20.910156 24.675781 21.28125 24.992188 C 21.566406 25.230469 21.914062 25.414062 22.171875 25.457031 C 22.875 25.582031 23.566406 25.101562 23.671875 24.40625 L 23.671875 24.3125 L 23.226562 24.3125 C 22.90625 24.3125 22.738281 24.308594 22.640625 24.289062 C 22.070312 24.136719 21.679688 23.621094 21.679688 23.046875 C 21.679688 22.691406 21.800781 22.386719 22.054688 22.132812 C 22.296875 21.890625 22.621094 21.757812 22.945312 21.757812 C 23.523438 21.757812 24.089844 22.195312 24.210938 22.765625 C 24.238281 22.890625 24.234375 23.171875 24.234375 24.078125 L 24.234375 25.222656 L 24.375 25.222656 C 24.667969 25.191406 24.984375 25.046875 25.171875 24.847656 C 25.285156 24.734375 25.398438 24.484375 25.453125 24.3125 C 25.496094 24.171875 25.5 24.085938 25.5 23.445312 C 25.5 22.523438 25.46875 22.308594 25.21875 21.828125 C 24.90625 21.222656 24.28125 20.730469 23.625 20.5625 C 23.449219 20.515625 23.28125 20.476562 23.109375 20.46875 Z M 23.109375 20.46875 "/>
    </g>
   </g>
  </g>
 </g>
 <g>
  <g clip-path="url(#3)">
   <g transform="translate(0,-1)">
    <g>
     <path d="M 31.289062 12.007812 C 30.875 11.976562 30.445312 12.03125 30.023438 12.171875 C 29.519531 12.339844 29.171875 12.558594 28.78125 12.945312 C 28.277344 13.449219 28.011719 13.984375 27.890625 14.703125 C 27.824219 15.101562 27.773438 15.25 27.65625 15.5 C 27.207031 16.453125 26.222656 17.117188 25.242188 17.117188 C 25.160156 17.117188 24.902344 17.101562 24.65625 17.070312 C 23.671875 16.941406 23.222656 16.925781 22.195312 17.023438 C 21.917969 17.050781 21.582031 17.070312 21.46875 17.070312 C 20.980469 17.070312 20.683594 16.886719 20.484375 16.484375 C 20.359375 16.234375 20.316406 16.109375 20.320312 15.664062 C 20.324219 15.292969 20.332031 15.25 20.273438 15.078125 C 20.175781 14.804688 20.085938 14.679688 19.875 14.46875 C 19.566406 14.164062 19.242188 14.023438 18.820312 14.023438 C 18.542969 14.023438 18.347656 14.066406 18.117188 14.1875 C 17.628906 14.441406 17.324219 14.914062 17.296875 15.453125 C 17.277344 15.828125 17.351562 16.054688 17.554688 16.367188 C 17.703125 16.59375 17.882812 16.757812 18.210938 16.929688 C 18.566406 17.113281 18.753906 17.289062 18.914062 17.609375 C 19.015625 17.8125 19.007812 17.832031 19.007812 18.054688 C 19.007812 18.265625 19.007812 18.289062 18.9375 18.429688 C 18.894531 18.515625 18.773438 18.675781 18.679688 18.78125 C 17.800781 19.757812 17.265625 20.8125 17.039062 21.945312 C 16.929688 22.480469 16.898438 22.769531 16.921875 23.351562 C 16.933594 23.628906 16.945312 23.9375 16.945312 24.03125 C 16.9375 24.5625 16.558594 24.925781 15.75 25.203125 C 15.554688 25.269531 15.464844 25.285156 15.210938 25.296875 C 15.011719 25.304688 14.855469 25.296875 14.742188 25.273438 C 14.640625 25.253906 14.433594 25.25 14.226562 25.25 C 13.832031 25.25 13.644531 25.292969 13.335938 25.4375 C 12.1875 25.96875 11.679688 27.304688 12.210938 28.4375 C 12.890625 29.882812 14.8125 30.195312 15.914062 29.046875 C 16.078125 28.875 16.160156 28.746094 16.335938 28.4375 C 16.390625 28.335938 16.507812 28.199219 16.59375 28.109375 C 16.984375 27.699219 17.519531 27.5 18.140625 27.5 C 18.585938 27.5 18.847656 27.59375 19.195312 27.875 C 19.773438 28.339844 20.574219 28.746094 21.28125 28.953125 C 22.0625 29.179688 22.503906 29.214844 23.8125 29.1875 C 24.195312 29.175781 24.316406 29.199219 24.492188 29.230469 C 24.984375 29.328125 25.460938 29.519531 25.875 29.792969 C 26.179688 29.996094 26.679688 30.496094 26.882812 30.800781 C 27.15625 31.210938 27.355469 31.726562 27.421875 32.136719 C 27.53125 32.824219 27.664062 33.234375 27.890625 33.683594 C 28.507812 34.898438 29.617188 35.710938 30.984375 35.957031 C 31.359375 36.023438 32.175781 36.011719 32.554688 35.933594 C 33.855469 35.667969 34.9375 34.847656 35.53125 33.683594 C 35.851562 33.050781 36 32.472656 36 31.738281 C 36.003906 30.023438 35.003906 28.503906 33.421875 27.824219 C 33.058594 27.671875 32.792969 27.605469 32.296875 27.519531 C 31.804688 27.4375 31.476562 27.328125 31.125 27.144531 C 30.300781 26.71875 29.636719 25.929688 29.34375 25.0625 C 29.183594 24.578125 29.117188 24.105469 29.15625 23.539062 C 29.179688 23.179688 29.167969 21.976562 29.132812 21.148438 C 29.109375 20.613281 29.1875 20.289062 29.414062 19.835938 C 29.671875 19.316406 30.101562 18.886719 30.632812 18.617188 C 30.910156 18.476562 31.109375 18.425781 31.5 18.359375 C 31.914062 18.289062 32.210938 18.195312 32.53125 18.03125 C 33.273438 17.648438 33.835938 17 34.101562 16.203125 C 34.214844 15.863281 34.242188 15.585938 34.242188 15.195312 C 34.242188 14.804688 34.191406 14.53125 34.078125 14.1875 C 33.65625 12.929688 32.535156 12.101562 31.289062 12.007812 Z M 22.664062 18.898438 C 24.113281 18.800781 25.566406 19.492188 26.390625 20.726562 C 26.6875 21.171875 26.925781 21.765625 27.023438 22.296875 C 27.09375 22.664062 27.074219 23.496094 27 23.84375 C 26.785156 24.84375 26.257812 25.691406 25.476562 26.300781 C 24.828125 26.808594 24.101562 27.078125 23.25 27.144531 C 23.078125 27.160156 22.902344 27.171875 22.875 27.167969 C 22.566406 27.148438 22.332031 27.117188 22.125 27.074219 C 20.410156 26.726562 19.148438 25.378906 18.867188 23.632812 C 18.828125 23.382812 18.828125 22.644531 18.867188 22.414062 C 19.03125 21.472656 19.375 20.777344 20.015625 20.140625 C 20.386719 19.769531 20.691406 19.554688 21.117188 19.34375 C 21.472656 19.167969 21.691406 19.074219 22.054688 18.992188 C 22.261719 18.945312 22.457031 18.910156 22.664062 18.898438 Z M 23.109375 20.46875 C 21.894531 20.394531 20.785156 21.171875 20.460938 22.390625 C 20.402344 22.605469 20.390625 22.65625 20.390625 23.023438 C 20.390625 23.386719 20.402344 23.460938 20.460938 23.679688 C 20.59375 24.175781 20.910156 24.675781 21.28125 24.992188 C 21.566406 25.230469 21.914062 25.414062 22.171875 25.457031 C 22.875 25.582031 23.566406 25.101562 23.671875 24.40625 L 23.671875 24.3125 L 23.226562 24.3125 C 22.90625 24.3125 22.738281 24.308594 22.640625 24.289062 C 22.070312 24.136719 21.679688 23.621094 21.679688 23.046875 C 21.679688 22.691406 21.800781 22.386719 22.054688 22.132812 C 22.296875 21.890625 22.621094 21.757812 22.945312 21.757812 C 23.523438 21.757812 24.089844 22.195312 24.210938 22.765625 C 24.238281 22.890625 24.234375 23.171875 24.234375 24.078125 L 24.234375 25.222656 L 24.375 25.222656 C 24.667969 25.191406 24.984375 25.046875 25.171875 24.847656 C 25.285156 24.734375 25.398438 24.484375 25.453125 24.3125 C 25.496094 24.171875 25.5 24.085938 25.5 23.445312 C 25.5 22.523438 25.46875 22.308594 25.21875 21.828125 C 24.90625 21.222656 24.28125 20.730469 23.625 20.5625 C 23.449219 20.515625 23.28125 20.476562 23.109375 20.46875 Z M 23.109375 20.46875 " fill="#f9f9f9"/>
    </g>
   </g>
  </g>
 </g>
 <g>
  <g transform="translate(0,-1004.3622)">
   <path d="m 1,1043.3622 0,4 c 0,2.216 1.784,4 4,4 l 38,0 c 2.216,0 4,-1.784 4,-4 l 0,-4 c 0,2.216 -1.784,4 -4,4 l -38,0 c -2.216,0 -4,-1.784 -4,-4 z" opacity="0.1"/>
  </g>
 </g>
</svg>

<svg viewBox="0 0 48 48"><defs><linearGradient id="linearGradient3764" x1="1" x2="47" gradientUnits="userSpaceOnUse" gradientTransform="translate(-48.000001,0.00221467)"><stop stop-color="#ffb109" stop-opacity="1"/><stop offset="1" stop-color="#ffb61d" stop-opacity="1"/></linearGradient><clipPath id="clipPath-689864693"><g transform="translate(0,-1004.3622)"><rect rx="4" y="1005.36" x="1" height="46" width="46" fill="#1890d0"/></g></clipPath><clipPath id="clipPath-704401196"><g transform="translate(0,-1004.3622)"><rect rx="4" y="1005.36" x="1" height="46" width="46" fill="#1890d0"/></g></clipPath></defs><g><path d="m 1 43 l 0 0.25 c 0 2.216 1.784 4 4 4 l 38 0 c 2.216 0 4 -1.784 4 -4 l 0 -0.25 c 0 2.216 -1.784 4 -4 4 l -38 0 c -2.216 0 -4 -1.784 -4 -4 z m 0 0.5 l 0 0.5 c 0 2.216 1.784 4 4 4 l 38 0 c 2.216 0 4 -1.784 4 -4 l 0 -0.5 c 0 2.216 -1.784 4 -4 4 l -38 0 c -2.216 0 -4 -1.784 -4 -4 z" opacity="0.02"/><path d="m 1 43.25 l 0 0.25 c 0 2.216 1.784 4 4 4 l 38 0 c 2.216 0 4 -1.784 4 -4 l 0 -0.25 c 0 2.216 -1.784 4 -4 4 l -38 0 c -2.216 0 -4 -1.784 -4 -4 z" opacity="0.05"/><path d="m 1 43 l 0 0.25 c 0 2.216 1.784 4 4 4 l 38 0 c 2.216 0 4 -1.784 4 -4 l 0 -0.25 c 0 2.216 -1.784 4 -4 4 l -38 0 c -2.216 0 -4 -1.784 -4 -4 z" opacity="0.1"/></g><g><rect width="46" height="46" x="-47" y="1" rx="4" transform="matrix(0,-1,1,0,0,0)" fill="url(#linearGradient3764)" fill-opacity="1"/></g><g><g clip-path="url(#clipPath-689864693)"><g opacity="0.1"><!-- color: #ffb61d --><g><path d="m 31.29 12.01 c -0.414 -0.031 -0.844 0.023 -1.266 0.164 c -0.504 0.168 -0.852 0.387 -1.242 0.773 c -0.504 0.504 -0.77 1.039 -0.891 1.758 c -0.066 0.398 -0.117 0.547 -0.234 0.797 c -0.449 0.953 -1.434 1.617 -2.414 1.617 c -0.082 0 -0.34 -0.016 -0.586 -0.047 c -0.984 -0.129 -1.434 -0.145 -2.461 -0.047 c -0.277 0.027 -0.613 0.047 -0.727 0.047 c -0.488 0 -0.785 -0.184 -0.984 -0.586 c -0.125 -0.25 -0.168 -0.375 -0.164 -0.82 c 0.004 -0.371 0.012 -0.414 -0.047 -0.586 c -0.098 -0.273 -0.188 -0.398 -0.398 -0.609 c -0.309 -0.305 -0.633 -0.445 -1.055 -0.445 c -0.277 0 -0.473 0.043 -0.703 0.164 c -0.488 0.254 -0.793 0.727 -0.82 1.266 c -0.02 0.375 0.055 0.602 0.258 0.914 c 0.148 0.227 0.328 0.391 0.656 0.563 c 0.355 0.184 0.543 0.359 0.703 0.68 c 0.102 0.203 0.094 0.223 0.094 0.445 c 0 0.211 0 0.234 -0.07 0.375 c -0.043 0.086 -0.164 0.246 -0.258 0.352 c -0.879 0.977 -1.414 2.031 -1.641 3.164 c -0.109 0.535 -0.141 0.824 -0.117 1.406 c 0.012 0.277 0.023 0.586 0.023 0.68 c -0.008 0.531 -0.387 0.895 -1.195 1.172 c -0.195 0.066 -0.285 0.082 -0.539 0.094 c -0.199 0.008 -0.355 0 -0.469 -0.023 c -0.102 -0.02 -0.309 -0.023 -0.516 -0.023 c -0.395 0 -0.582 0.043 -0.891 0.188 c -1.148 0.531 -1.656 1.867 -1.125 3 c 0.68 1.445 2.602 1.758 3.703 0.609 c 0.164 -0.172 0.246 -0.301 0.422 -0.609 c 0.055 -0.102 0.172 -0.238 0.258 -0.328 c 0.391 -0.41 0.926 -0.609 1.547 -0.609 c 0.445 0 0.707 0.094 1.055 0.375 c 0.578 0.465 1.379 0.871 2.086 1.078 c 0.781 0.227 1.223 0.262 2.531 0.234 c 0.383 -0.012 0.504 0.012 0.68 0.043 c 0.492 0.098 0.969 0.289 1.383 0.563 c 0.305 0.203 0.805 0.703 1.01 1.01 c 0.273 0.41 0.473 0.926 0.539 1.336 c 0.109 0.688 0.242 1.098 0.469 1.547 c 0.617 1.215 1.727 2.027 3.094 2.273 c 0.375 0.066 1.191 0.055 1.57 -0.023 c 1.301 -0.266 2.383 -1.086 2.977 -2.25 c 0.32 -0.633 0.469 -1.211 0.469 -1.945 c 0.004 -1.715 -0.996 -3.234 -2.578 -3.914 c -0.363 -0.152 -0.629 -0.219 -1.125 -0.305 c -0.492 -0.082 -0.82 -0.191 -1.172 -0.375 c -0.824 -0.426 -1.488 -1.215 -1.781 -2.082 c -0.16 -0.484 -0.227 -0.957 -0.188 -1.523 c 0.023 -0.359 0.012 -1.563 -0.023 -2.391 c -0.023 -0.535 0.055 -0.859 0.281 -1.313 c 0.258 -0.52 0.688 -0.949 1.219 -1.219 c 0.277 -0.141 0.477 -0.191 0.867 -0.258 c 0.414 -0.07 0.711 -0.164 1.031 -0.328 c 0.742 -0.383 1.305 -1.031 1.57 -1.828 c 0.113 -0.34 0.141 -0.617 0.141 -1.01 c 0 -0.391 -0.051 -0.664 -0.164 -1.01 c -0.422 -1.258 -1.543 -2.086 -2.789 -2.18 m -8.625 6.891 c 1.449 -0.098 2.902 0.594 3.727 1.828 c 0.297 0.445 0.535 1.039 0.633 1.57 c 0.07 0.367 0.051 1.199 -0.023 1.547 c -0.215 1 -0.742 1.848 -1.523 2.457 c -0.648 0.508 -1.375 0.777 -2.227 0.844 c -0.172 0.016 -0.348 0.027 -0.375 0.023 c -0.309 -0.02 -0.543 -0.051 -0.75 -0.094 c -1.715 -0.348 -2.977 -1.695 -3.258 -3.441 c -0.039 -0.25 -0.039 -0.988 0 -1.219 c 0.164 -0.941 0.508 -1.637 1.148 -2.273 c 0.371 -0.371 0.676 -0.586 1.102 -0.797 c 0.355 -0.176 0.574 -0.27 0.938 -0.352 c 0.207 -0.047 0.402 -0.082 0.609 -0.094 m 0.445 1.57 c -1.215 -0.074 -2.324 0.703 -2.648 1.922 c -0.059 0.215 -0.07 0.266 -0.07 0.633 c 0 0.363 0.012 0.438 0.07 0.656 c 0.133 0.496 0.449 0.996 0.82 1.313 c 0.285 0.238 0.633 0.422 0.891 0.465 c 0.703 0.125 1.395 -0.355 1.5 -1.051 l 0 -0.094 l -0.445 0 c -0.32 0 -0.488 -0.004 -0.586 -0.023 c -0.57 -0.152 -0.961 -0.668 -0.961 -1.242 c 0 -0.355 0.121 -0.66 0.375 -0.914 c 0.242 -0.242 0.566 -0.375 0.891 -0.375 c 0.578 0 1.145 0.438 1.266 1.01 c 0.027 0.125 0.023 0.406 0.023 1.313 l 0 1.145 l 0.141 0 c 0.293 -0.031 0.609 -0.176 0.797 -0.375 c 0.113 -0.113 0.227 -0.363 0.281 -0.535 c 0.043 -0.141 0.047 -0.227 0.047 -0.867 c 0 -0.922 -0.031 -1.137 -0.281 -1.617 c -0.313 -0.605 -0.938 -1.098 -1.594 -1.266 c -0.176 -0.047 -0.344 -0.086 -0.516 -0.094 m 0 0" fill="#000"/></g></g></g></g><g><g clip-path="url(#clipPath-704401196)"><g transform="translate(0,-1)"><!-- color: #ffb61d --><g><path d="m 31.29 12.01 c -0.414 -0.031 -0.844 0.023 -1.266 0.164 c -0.504 0.168 -0.852 0.387 -1.242 0.773 c -0.504 0.504 -0.77 1.039 -0.891 1.758 c -0.066 0.398 -0.117 0.547 -0.234 0.797 c -0.449 0.953 -1.434 1.617 -2.414 1.617 c -0.082 0 -0.34 -0.016 -0.586 -0.047 c -0.984 -0.129 -1.434 -0.145 -2.461 -0.047 c -0.277 0.027 -0.613 0.047 -0.727 0.047 c -0.488 0 -0.785 -0.184 -0.984 -0.586 c -0.125 -0.25 -0.168 -0.375 -0.164 -0.82 c 0.004 -0.371 0.012 -0.414 -0.047 -0.586 c -0.098 -0.273 -0.188 -0.398 -0.398 -0.609 c -0.309 -0.305 -0.633 -0.445 -1.055 -0.445 c -0.277 0 -0.473 0.043 -0.703 0.164 c -0.488 0.254 -0.793 0.727 -0.82 1.266 c -0.02 0.375 0.055 0.602 0.258 0.914 c 0.148 0.227 0.328 0.391 0.656 0.563 c 0.355 0.184 0.543 0.359 0.703 0.68 c 0.102 0.203 0.094 0.223 0.094 0.445 c 0 0.211 0 0.234 -0.07 0.375 c -0.043 0.086 -0.164 0.246 -0.258 0.352 c -0.879 0.977 -1.414 2.031 -1.641 3.164 c -0.109 0.535 -0.141 0.824 -0.117 1.406 c 0.012 0.277 0.023 0.586 0.023 0.68 c -0.008 0.531 -0.387 0.895 -1.195 1.172 c -0.195 0.066 -0.285 0.082 -0.539 0.094 c -0.199 0.008 -0.355 0 -0.469 -0.023 c -0.102 -0.02 -0.309 -0.023 -0.516 -0.023 c -0.395 0 -0.582 0.043 -0.891 0.188 c -1.148 0.531 -1.656 1.867 -1.125 3 c 0.68 1.445 2.602 1.758 3.703 0.609 c 0.164 -0.172 0.246 -0.301 0.422 -0.609 c 0.055 -0.102 0.172 -0.238 0.258 -0.328 c 0.391 -0.41 0.926 -0.609 1.547 -0.609 c 0.445 0 0.707 0.094 1.055 0.375 c 0.578 0.465 1.379 0.871 2.086 1.078 c 0.781 0.227 1.223 0.262 2.531 0.234 c 0.383 -0.012 0.504 0.012 0.68 0.043 c 0.492 0.098 0.969 0.289 1.383 0.563 c 0.305 0.203 0.805 0.703 1.01 1.01 c 0.273 0.41 0.473 0.926 0.539 1.336 c 0.109 0.688 0.242 1.098 0.469 1.547 c 0.617 1.215 1.727 2.027 3.094 2.273 c 0.375 0.066 1.191 0.055 1.57 -0.023 c 1.301 -0.266 2.383 -1.086 2.977 -2.25 c 0.32 -0.633 0.469 -1.211 0.469 -1.945 c 0.004 -1.715 -0.996 -3.234 -2.578 -3.914 c -0.363 -0.152 -0.629 -0.219 -1.125 -0.305 c -0.492 -0.082 -0.82 -0.191 -1.172 -0.375 c -0.824 -0.426 -1.488 -1.215 -1.781 -2.082 c -0.16 -0.484 -0.227 -0.957 -0.188 -1.523 c 0.023 -0.359 0.012 -1.563 -0.023 -2.391 c -0.023 -0.535 0.055 -0.859 0.281 -1.313 c 0.258 -0.52 0.688 -0.949 1.219 -1.219 c 0.277 -0.141 0.477 -0.191 0.867 -0.258 c 0.414 -0.07 0.711 -0.164 1.031 -0.328 c 0.742 -0.383 1.305 -1.031 1.57 -1.828 c 0.113 -0.34 0.141 -0.617 0.141 -1.01 c 0 -0.391 -0.051 -0.664 -0.164 -1.01 c -0.422 -1.258 -1.543 -2.086 -2.789 -2.18 m -8.625 6.891 c 1.449 -0.098 2.902 0.594 3.727 1.828 c 0.297 0.445 0.535 1.039 0.633 1.57 c 0.07 0.367 0.051 1.199 -0.023 1.547 c -0.215 1 -0.742 1.848 -1.523 2.457 c -0.648 0.508 -1.375 0.777 -2.227 0.844 c -0.172 0.016 -0.348 0.027 -0.375 0.023 c -0.309 -0.02 -0.543 -0.051 -0.75 -0.094 c -1.715 -0.348 -2.977 -1.695 -3.258 -3.441 c -0.039 -0.25 -0.039 -0.988 0 -1.219 c 0.164 -0.941 0.508 -1.637 1.148 -2.273 c 0.371 -0.371 0.676 -0.586 1.102 -0.797 c 0.355 -0.176 0.574 -0.27 0.938 -0.352 c 0.207 -0.047 0.402 -0.082 0.609 -0.094 m 0.445 1.57 c -1.215 -0.074 -2.324 0.703 -2.648 1.922 c -0.059 0.215 -0.07 0.266 -0.07 0.633 c 0 0.363 0.012 0.438 0.07 0.656 c 0.133 0.496 0.449 0.996 0.82 1.313 c 0.285 0.238 0.633 0.422 0.891 0.465 c 0.703 0.125 1.395 -0.355 1.5 -1.051 l 0 -0.094 l -0.445 0 c -0.32 0 -0.488 -0.004 -0.586 -0.023 c -0.57 -0.152 -0.961 -0.668 -0.961 -1.242 c 0 -0.355 0.121 -0.66 0.375 -0.914 c 0.242 -0.242 0.566 -0.375 0.891 -0.375 c 0.578 0 1.145 0.438 1.266 1.01 c 0.027 0.125 0.023 0.406 0.023 1.313 l 0 1.145 l 0.141 0 c 0.293 -0.031 0.609 -0.176 0.797 -0.375 c 0.113 -0.113 0.227 -0.363 0.281 -0.535 c 0.043 -0.141 0.047 -0.227 0.047 -0.867 c 0 -0.922 -0.031 -1.137 -0.281 -1.617 c -0.313 -0.605 -0.938 -1.098 -1.594 -1.266 c -0.176 -0.047 -0.344 -0.086 -0.516 -0.094 m 0 0" fill="#f9f9f9"/></g></g></g></g><g><g transform="translate(0,-1004.3622)"><path d="m 1 1043.36 0 4 c 0 2.216 1.784 4 4 4 l 38 0 c 2.216 0 4 -1.784 4 -4 l 0 -4 c 0 2.216 -1.784 4 -4 4 l -38 0 c -2.216 0 -4 -1.784 -4 -4 z" opacity="0.1"/></g></g></svg>
